!!!COM: Robert Schumann
!!!CNT: Deutsch
!!!TXO: Deutsch
!!!OTL: "Ins Freie"
!!!LYR: von der Neun
!!!OPR: Sechs Gesa2nge
!!!OPS: Op. 89
!!!ONM: No. 5
!!!ENC: Leigh VanHandel
!!!YOR: Schumann Lieder - Max Friedlaender, ed.,
!!!YOR: New York: C. F. Peters, Vol. 3
!!!ODT: 1850/
**kern	**silbe
*staff1	*
*clefG2	*
*k[b-e-]	*
*met(C)	*
*M4/4	*
*MM[Frisch]	*
=1	=1
1r	.
=2	=2
1r	.
=3	=3
2r	.
{2dd	{Mir
=4	=4
4.b-	ist's
8b-	so
2b-	eng
=5	=5
4ee-	all-
8.dd	-u2-
16cc	-ber-
2dd}	-all!}
=6	=6
8.r	.
{16d	{Es
8.f	schla2gt
16b-	das
4dd	Herz
4cc	mit
=7	=7
4.gg	lau-
8ff	-tem
2ff}	Schall,}
=8	=8
8.r	.
{16cc	{und
8.cc	was
16dd	da
4ee-	schallt,
4g	sind
=9	=9
2cc	Lie-
4b-}	-der!}
4r	.
=10	=10
4r	.
{4b-	{Aus
4.ee-	du2st-
8cc	-rer
=11	=11
4b	Mau-
4a	-ern
4b-	ban-
4cc	-gem
=12	=12
2f}	Ring}
{4d	{flieg'
8f	ich
8b-	ins
=13	=13
4dd	Wei-
4b-	-te
4f	froh
8b-	|
8dd	und
=14	=14
2ff}	flink:}
{4ee-	{da
8ff	atm'
8gg	ich
=15	=15
4a	Won-
4b-	-ne
[2ee-	wie-
=16	=16
2.ee-]	|
4a	|
=17	=17
2b-}	-der!}
2r	.
=18	=18
1r	.
=19	=19
1r	.
=20	=20
1r	.
=21	=21
2r	.
{2b-	{Da
=22	=22
4.a-	flat-
8a-	-tert
4.cc	aus
8b-	der
=23	=23
8.a-	off-
16g	-nen
4g}	Brust}
4r	.
{4ee-	{die
=24	=24
4.dd	Sehn-
8cc	sucht
4b-	nach
4cc	ver-
=25	=25
4.a	-rausch-
8b-	-ter
4b-	Lust
4b-	und
=26	=26
4.a-	nach
8a-	ge-
4cc	-hoff-
4b-	-ter
=27	=27
4a-	Won-
4g}	-ne:}
4r	.
{4g	{die
=28	=28
8g	Win-
8ee-	|
8dd	|
8cc	-de
4b-	tra-
4g	-gen's
=29	=29
4.dd	him-
8a	-mel-
4b-}	-an,}
{4g	{die
=30	=30
4g	Gra2s-
4ee-	-lein
4dd	ge-
8g	-ben
8cc	|
=31	=31
4b-	Fu2r-
4a	-bitt'
4g}	dran,}
{8g	{sich
8a	|
=32	=32
4b-	nei-
8g	-gend
8a	|
4.b-	in
8gg	der
=33	=33
2gg	Son-
2ff}	-ne.}
=34	=34
1r	.
=35	=35
2r	.
{2dd	Mir
=36	=36
4.b-	ist's
8b-	so
2b-	eng
=37	=37
4ee-	all-
8.dd	-u2-
16cc	-ber-
2dd}	-all!}
=38	=38
8.r	.
{16d	{Es
8.f	schla2gt
16b-	das
4dd	Herz
4cc	mit
=39	=39
4.gg	lat-
8ff	-tem
2ff}	Schall,}
=40	=40
8.r	.
{16cc	{und
8.cc	was
16dd	da
4ee-	schallt,
4g	sind
=41	=41
2cc	Lie-
4b-}	-der!}
4r	.
=42	=42
4r	.
{4b-	{Aus
4.ee-	du2st-
8cc	-rer
=43	=43
4b-	Mau-
4a	-ern
4b-	ban-
4cc	-gem
=44	=44
2f}	Ring}
{4d	{fleig'
8f	ich
8b-	ins
=45	=45
4dd	Wei-
4b-	-te
4f	froh
8b-	|
8dd	und
=46	=46
2ff}	flink:}
{4ee-	{da
8ff	atm'
8gg	ich
=47	=47
4a	Won-
4b-	-ne
2ee-	wie-
=48	=48
4dd}	-der,}
4r	.
{4b-	{da
8cc	atm'
8dd	ich
=49	=49
4..g	Won-
16g	-ne
2cc	wie-
=50	=50
4b-}	-der;}
4r	.
4r	.
{4ff	{es
=51	=51
4.g	schla2gt
8g	das
4ee-	Herz
4dd	mit
=52	=52
4.cc	lau-
8b-	-tem
4b-}	Schall,}
{4b-	{und
=53	=53
4.g	was
8g	da
4cc	schallt,
4dd	sind
=54	=54
2cc	Lie-
4b-}	-der,}
4r	.
=55	=55
8r	.
{8b-	{und
8.a	was
16g	da
4gg	schallt,
4een	sind
=56	=56
[1ff	Lie-
=57	=57
1ff]	|
=58	=58
4b-}	-der!}
4r	.
2r	.
==	==
*-	*-
